packages/ffe-icons/icons/filled/lg/diversity_4.svg

<svg xmlns="http://www.w3.org/2000/svg" height="40" viewBox="0 -960 960 960" width="40"><path d="m497.128-100.001 58.896-54.102q111.718-102.179 150.924-157.654Q746.153-367.231 746.153-425q0-20.641-5.628-38.82-5.628-18.179-16.166-36.179h73.015q25.933 0 44.279 18.395 18.346 18.394 18.346 44.169v306.127q0 13.589-8.907 22.448t-22.375 8.859H497.128Zm-397.127-31.282v-306.023q0-26.001 17.943-44.347 17.942-18.346 44.621-18.346h72.871q-9.974 17.154-15.781 35.972-5.808 18.818-5.808 39.027 0 58.923 36.757 111.936 36.756 53.012 153.936 160.115l58.332 52.948H131.283q-13.468 0-22.375-8.907t-8.907-22.375ZM759.973-560q-42.511 0-71.241-28.724-28.731-28.723-28.731-71.184 0-41.628 28.724-70.859 28.724-29.23 71.184-29.23 41.629 0 70.859 29.174 29.231 29.174 29.231 70.851 0 42.511-29.175 71.242Q801.65-560 759.973-560Zm-279.95-40q-50.561 0-85.291-34.678-34.731-34.678-34.731-85.196 0-49.662 34.678-84.893 34.678-35.23 85.197-35.23 49.662 0 84.892 35.136 35.231 35.135 35.231 84.839 0 50.561-35.136 85.292Q529.727-600 480.023-600ZM264.102-425q0 45.103 40.564 97.654 40.564 52.551 160.512 161.859l15.002 13.077 15.001-14.231Q608.718-271 652.308-325.346q43.59-54.345 43.59-99.654 0-46.872-31.18-78.885-31.179-32.013-76.718-32.013-26.692 0-48.808 11.782-22.115 11.782-39.756 29.218l-19.641 19.59-20.231-19.641q-17.692-16.564-39.654-28.757-21.961-12.192-47.91-12.192-46.692 0-77.295 32.013T264.102-425Zm-64.129-135q-42.511 0-71.241-28.724-28.731-28.723-28.731-71.184 0-41.628 28.724-70.859 28.724-29.23 71.185-29.23 41.628 0 70.858 29.174 29.231 29.174 29.231 70.851 0 42.511-29.175 71.242Q241.65-560 199.973-560Z"/></svg>

<svg xmlns="http://www.w3.org/2000/svg" viewBox="0 -960 960 960" width="32" height="32"><path d="m497.13-100 58.89-54.1q111.72-102.18 150.93-157.66 39.2-55.47 39.2-113.24 0-20.64-5.63-38.82Q734.9-482 724.36-500h73.01q25.94 0 44.28 18.4Q860-463.21 860-437.43v306.12q0 13.59-8.91 22.45T828.72-100H497.13ZM100-131.28v-306.03q0-26 17.94-44.34Q135.89-500 162.57-500h72.87q-9.98 17.16-15.79 35.97-5.8 18.82-5.8 39.03 0 58.92 36.75 111.94 36.76 53.01 153.94 160.11L462.87-100H131.28q-13.46 0-22.37-8.91T100-131.28ZM759.97-560q-42.51 0-71.24-28.72Q660-617.45 660-659.91q0-41.63 28.73-70.86Q717.45-760 759.91-760q41.63 0 70.86 29.18Q860-701.65 860-659.97q0 42.51-29.18 71.24Q801.65-560 759.97-560Zm-279.95-40q-50.56 0-85.29-34.68Q360-669.36 360-719.87q0-49.67 34.68-84.9Q429.36-840 479.88-840q49.66 0 84.89 35.14Q600-769.73 600-720.02q0 50.56-35.14 85.29Q529.73-600 480.02-600ZM264.1-425q0 45.1 40.57 97.65 40.56 52.56 160.51 161.86l15 13.08 15-14.23Q608.72-271 652.31-325.35 695.9-379.69 695.9-425q0-46.87-31.18-78.88Q633.54-535.9 588-535.9q-26.69 0-48.81 11.78-22.11 11.79-39.75 29.22l-19.65 19.59-20.23-19.64q-17.69-16.56-39.65-28.76Q397.95-535.9 372-535.9q-46.69 0-77.3 32.02-30.6 32.01-30.6 78.88Zm-64.13-135q-42.51 0-71.24-28.72Q100-617.45 100-659.91q0-41.63 28.73-70.86Q157.45-760 199.91-760q41.63 0 70.86 29.18Q300-701.65 300-659.97q0 42.51-29.18 71.24Q241.65-560 199.97-560Z"/></svg>
